Resources/Icons/PCGEx_Editor_STF_Uniform.svg

<?xml version="1.0" encoding="UTF-8"?>
<svg id="icons" xmlns="http://www.w3.org/2000/svg" viewBox="0 0 200 100">
  <defs>
    <style>
      .cls-1 {
        fill: #fff;
      }

      .cls-2 {
        fill: none;
        opacity: .5;
        stroke: #fff;
        stroke-miterlimit: 10;
        stroke-width: 5px;
      }
    </style>
  </defs>
  <path d="M57.26,67.18v-.05c-.52.85-1.37,1.93-3.01,1.93s-3.2-1.5-3.2-3.05c0-.52.24-1.22.47-1.6l8.13-12.96-7.47-11.79c-.23-.47-.37-1.08-.37-1.6,0-1.5,1.46-2.96,3.15-2.96,1.45,0,2.58,1.03,3.24,2.16l5.31,8.73,5.31-8.73c.61-.89,1.64-2.16,3.28-2.16s3.1,1.36,3.1,3.01c0,.47-.19,1.03-.42,1.55l-7.42,11.79,8.13,12.96c.23.38.47,1.08.47,1.6,0,1.55-1.55,3.05-3.14,3.05s-2.49-.99-3.06-1.88l-6.24-10.33-6.24,10.33Z"/>
  <path d="M98.7,65.96v-10.28l-8.27-16.15c-.14-.33-.28-.89-.28-1.36,0-1.64,1.64-3.05,3.33-3.05.99,0,2.11.42,2.68,1.41l5.87,11.65,5.82-11.65c.57-.99,1.69-1.41,2.73-1.41,1.69,0,3.33,1.41,3.33,3.05,0,.42-.19.94-.33,1.36l-8.22,16.15v10.28c0,1.64-1.45,3.1-3.33,3.1s-3.33-1.41-3.33-3.1Z"/>
  <path d="M147.02,68.63h-16.1c-1.93,0-3.38-1.45-3.38-3.19,0-.61.42-1.6.66-2.07,4.6-7.61,8.64-14.09,13.29-21.79h-10.61c-1.83,0-3.24-1.32-3.24-3.01s1.41-3.05,3.24-3.05h15.92c1.97,0,3.43,1.41,3.43,3.15,0,.85-.33,1.5-.66,2.02l-13.38,21.88h10.85c1.74,0,3.29,1.32,3.29,3.01s-1.5,3.05-3.29,3.05Z"/>
  <path class="cls-1" d="M55.9,65.13v-.05c-.52.85-1.37,1.93-3.01,1.93s-3.2-1.5-3.2-3.05c0-.52.24-1.22.47-1.6l8.13-12.96-7.47-11.79c-.23-.47-.37-1.08-.37-1.6,0-1.5,1.46-2.96,3.15-2.96,1.45,0,2.58,1.03,3.24,2.16l5.31,8.73,5.31-8.73c.61-.89,1.64-2.16,3.28-2.16s3.1,1.36,3.1,3.01c0,.47-.19,1.03-.42,1.55l-7.42,11.79,8.13,12.96c.23.38.47,1.08.47,1.6,0,1.55-1.55,3.05-3.14,3.05s-2.49-.99-3.06-1.88l-6.24-10.33-6.24,10.33Z"/>
  <path class="cls-1" d="M97.34,63.91v-10.28l-8.27-16.15c-.14-.33-.28-.89-.28-1.36,0-1.64,1.64-3.05,3.33-3.05.99,0,2.11.42,2.68,1.41l5.87,11.65,5.82-11.65c.57-.99,1.69-1.41,2.73-1.41,1.69,0,3.33,1.41,3.33,3.05,0,.42-.19.94-.33,1.36l-8.22,16.15v10.28c0,1.64-1.45,3.1-3.33,3.1s-3.33-1.41-3.33-3.1Z"/>
  <path class="cls-1" d="M145.65,66.58h-16.1c-1.93,0-3.38-1.45-3.38-3.19,0-.61.42-1.6.66-2.07,4.6-7.61,8.64-14.09,13.29-21.79h-10.61c-1.83,0-3.24-1.32-3.24-3.01s1.41-3.05,3.24-3.05h15.92c1.97,0,3.43,1.41,3.43,3.15,0,.85-.33,1.5-.66,2.02l-13.38,21.88h10.85c1.74,0,3.29,1.32,3.29,3.01s-1.5,3.05-3.29,3.05Z"/>
  <path class="cls-2" d="M176.4,71.07c0,6.6-5.4,12-12,12H35.6c-6.6,0-12-5.4-12-12"/>
  <path class="cls-2" d="M23.6,28.93c0-6.6,5.4-12,12-12h128.8c6.6,0,12,5.4,12,12"/>
</svg>

<svg id="icons" xmlns="http://www.w3.org/2000/svg" viewBox="0 0 200 100">
    <defs>
        <style>.cls-1{fill:#fff;}.cls-2{fill:none;stroke:#fff;stroke-miterlimit:10;stroke-width:5px;opacity:0.5;}
        </style>
    </defs>
    <path d="M57.26,67.18v-.05a3.43,3.43,0,0,1-3,1.93A3.28,3.28,0,0,1,51.06,66a3.57,3.57,0,0,1,.47-1.59l8.12-13L52.19,39.66a3.72,3.72,0,0,1-.38-1.6,3.19,3.19,0,0,1,3.15-3,4,4,0,0,1,3.24,2.16L63.51,46l5.3-8.74A4.17,4.17,0,0,1,72.1,35.1a3.12,3.12,0,0,1,3.1,3,4,4,0,0,1-.43,1.55L67.36,51.45l8.12,13A3.57,3.57,0,0,1,76,66a3.3,3.3,0,0,1-3.15,3.06,3.45,3.45,0,0,1-3-1.88L63.51,56.85Z"/>
    <path d="M98.7,66V55.67L90.44,39.52a3.69,3.69,0,0,1-.29-1.36,3.34,3.34,0,0,1,3.34-3.06,3.06,3.06,0,0,1,2.67,1.41L102,48.16l5.82-11.65a3.08,3.08,0,0,1,2.72-1.41,3.34,3.34,0,0,1,3.34,3.06,4.82,4.82,0,0,1-.33,1.36l-8.22,16.15V66a3.25,3.25,0,0,1-3.33,3.1A3.21,3.21,0,0,1,98.7,66Z"/>
    <path d="M147,68.63H130.91a3.27,3.27,0,0,1-3.38-3.19,5.85,5.85,0,0,1,.66-2.07c4.6-7.6,8.64-14.08,13.29-21.78H130.86a3.08,3.08,0,0,1-3.23-3,3.14,3.14,0,0,1,3.23-3h15.92a3.25,3.25,0,0,1,3.43,3.14,3.65,3.65,0,0,1-.66,2L136.17,62.57H147a3,3,0,1,1,0,6.06Z"/>
    <path class="cls-1"
          d="M55.9,65.13v0a3.45,3.45,0,0,1-3,1.93A3.28,3.28,0,0,1,49.69,64a3.57,3.57,0,0,1,.47-1.59l8.13-13L50.82,37.61a3.86,3.86,0,0,1-.37-1.6,3.17,3.17,0,0,1,3.14-2.95,3.91,3.91,0,0,1,3.24,2.16L62.14,44l5.31-8.73a4.12,4.12,0,0,1,3.28-2.16,3.11,3.11,0,0,1,3.1,3,4.14,4.14,0,0,1-.42,1.55L66,49.4l8.12,13A3.44,3.44,0,0,1,74.58,64,3.3,3.3,0,0,1,71.44,67a3.47,3.47,0,0,1-3.06-1.88L62.14,54.8Z"/>
    <path class="cls-1"
          d="M97.34,63.91V53.62L89.07,37.47a3.9,3.9,0,0,1-.28-1.36,3.32,3.32,0,0,1,3.33-3,3.06,3.06,0,0,1,2.68,1.4l5.87,11.65,5.82-11.65a3.08,3.08,0,0,1,2.73-1.4,3.32,3.32,0,0,1,3.33,3,4.82,4.82,0,0,1-.33,1.36L104,53.62V63.91a3.24,3.24,0,0,1-3.33,3.1A3.21,3.21,0,0,1,97.34,63.91Z"/>
    <path class="cls-1"
          d="M145.65,66.58h-16.1a3.27,3.27,0,0,1-3.39-3.19,6.06,6.06,0,0,1,.66-2.07c4.6-7.6,8.64-14.08,13.29-21.78H129.5a3.09,3.09,0,0,1-3.24-3,3.15,3.15,0,0,1,3.24-3.05h15.92a3.24,3.24,0,0,1,3.42,3.14,3.65,3.65,0,0,1-.65,2L134.8,60.53h10.85a3,3,0,1,1,0,6Z"/>
    <path class="cls-2" d="M176.4,71.07a12,12,0,0,1-12,12H35.6a12,12,0,0,1-12-12"/>
    <path class="cls-2" d="M23.6,28.93a12,12,0,0,1,12-12H164.4a12,12,0,0,1,12,12"/>
</svg>
